client/src/assets/face.svg

<svg width="24" height="24" viewBox="0 0 24 24" fill="none" xmlns="http://www.w3.org/2000/svg">
<path d="M9 11.75C8.31 11.75 7.75 12.31 7.75 13C7.75 13.69 8.31 14.25 9 14.25C9.69 14.25 10.25 13.69 10.25 13C10.25 12.31 9.69 11.75 9 11.75ZM15 11.75C14.31 11.75 13.75 12.31 13.75 13C13.75 13.69 14.31 14.25 15 14.25C15.69 14.25 16.25 13.69 16.25 13C16.25 12.31 15.69 11.75 15 11.75ZM12 2C6.48 2 2 6.48 2 12C2 17.52 6.48 22 12 22C17.52 22 22 17.52 22 12C22 6.48 17.52 2 12 2ZM12 20C7.59 20 4 16.41 4 12C4 11.71 4.02 11.42 4.05 11.14C6.41 10.09 8.28 8.16 9.26 5.77C11.07 8.33 14.05 10 17.42 10C18.2 10 18.95 9.91 19.67 9.74C19.88 10.45 20 11.21 20 12C20 16.41 16.41 20 12 20Z" fill="black"/>
</svg>

<?xml version="1.0" encoding="utf-8"?>
<!-- Generator: Adobe Illustrator 25.2.3, SVG Export Plug-In . SVG Version: 6.00 Build 0)  -->
<svg version="1.1" id="Layer_1" xmlns="http://www.w3.org/2000/svg" xmlns:xlink="http://www.w3.org/1999/xlink" x="0px" y="0px"
	 viewBox="0 0 24 24" style="enable-background:new 0 0 24 24;" xml:space="preserve">
<style type="text/css">
	.st0{fill:#FBBC05;}
</style>
<path class="st0" d="M9,11.8c-0.7,0-1.2,0.6-1.2,1.2s0.6,1.2,1.2,1.2s1.2-0.6,1.2-1.2S9.7,11.8,9,11.8z M15,11.8
	c-0.7,0-1.2,0.6-1.2,1.2s0.6,1.2,1.2,1.2s1.2-0.6,1.2-1.2S15.7,11.8,15,11.8z M12,2C6.5,2,2,6.5,2,12s4.5,10,10,10s10-4.5,10-10
	S17.5,2,12,2z M12,20c-4.4,0-8-3.6-8-8c0-0.3,0-0.6,0.1-0.9c2.4-1.1,4.2-3,5.2-5.4c1.8,2.6,4.8,4.2,8.2,4.2c0.8,0,1.5-0.1,2.2-0.3
	c0.2,0.7,0.3,1.5,0.3,2.3C20,16.4,16.4,20,12,20z"/>
</svg>
